X:1
T: "All the Rage"
C:
R:Reel
I:speed 232
Q:232
K:G
M:4/4
L:1/8
|:d|g2dB g2dB|g2fg af df|g2dB g2dB|eg fa g3d|
g2dB g2dB|g2fg af df|g2dB g2dB|eg fa g2g2|
Bc dB cB AG|FG AB c2BA|Bc dB cB AG|FA DF G2d2|
Bc dB cB AG|FG AB c2BA|Bc dB cB AG|FA DF G3:|
